static/img/pages/index/integrations/tableau.svg

<svg width="102" height="100" viewBox="0 0 102 100" fill="none" xmlns="http://www.w3.org/2000/svg">
<path d="M48.209 67.5616H53.7911V52.4366H67.8309V47.0588H53.7911V31.9338H48.209V47.0588H34.3383V52.4366H48.209V67.5616Z" fill="white"/>
<path d="M22.3284 89.409H27.0647V75.9646H39.5821V71.7632H27.0647V58.1506H22.3284V71.7632H9.81094V75.9646H22.3284V89.409Z" fill="white"/>
<path d="M74.9353 40.8411H79.6716V27.3966H92.3582V23.3633H79.6716V9.75073H74.9353V23.3633H62.4179V27.3966H74.9353V40.8411Z" fill="white"/>
<path d="M49.0547 99.9966H53.1144V90.4174H61.7413V86.8883H53.1144V77.3091H49.0547V86.8883H40.597V90.4174H49.0547V99.9966Z" fill="white"/>
<path d="M22.4975 40.8411H26.8955V27.2285H39.5821V23.3633H26.8955V9.75073H22.4975V23.3633H9.81094V27.2285H22.4975V40.8411Z" fill="white"/>
<path d="M89.3134 61.0077H93.3731V51.5966H102V47.8994H93.3731V38.4883H89.3134V47.8994H80.8557V51.5966H89.3134V61.0077Z" fill="white"/>
<path fill-rule="evenodd" clip-rule="evenodd" d="M74.9353 89.409H79.6716V75.9646H92.3582V71.7632H79.6716V58.1506H74.9353V71.7632H62.4179V75.9646H74.9353V89.409Z" fill="white"/>
<path d="M61.0647 12.1049V9.24795H52.607V0.00488281H49.5622V9.24795H41.1045V12.1049H49.5622V21.348H52.607V12.1049H61.0647ZM8.45771 60.3369H11.5025V51.0938H19.9602V48.2369H11.5025V39.1619H8.45771V48.2369H0V51.2619L8.45771 51.0938V60.3369Z" fill="white"/>
</svg>

<svg width="102" height="100" fill="none" xmlns="http://www.w3.org/2000/svg"><path d="M48.209 67.562h5.582V52.437h14.04v-5.378H53.79V31.934h-5.58v15.125H34.34v5.378h13.87v15.125zM22.328 89.409h4.737V75.965h12.517v-4.202H27.065V58.151h-4.737v13.612H9.811v4.202h12.517v13.444zm52.607-48.568h4.737V27.397h12.686v-4.034H79.672V9.751h-4.737v13.612H62.418v4.034h12.517V40.84zm-25.88 59.156h4.06v-9.58h8.626v-3.529h-8.627V77.31h-4.06v9.58h-8.457v3.528h8.458v9.58zM22.497 40.841h4.398V27.228h12.687v-3.865H26.895V9.751h-4.398v13.612H9.811v3.866h12.686V40.84zm66.816 20.167h4.06v-9.411H102v-3.698h-8.627v-9.41h-4.06v9.41h-8.457v3.698h8.457v9.41z" fill="#fff"/><path fill-rule="evenodd" clip-rule="evenodd" d="M74.935 89.409h4.737V75.965h12.686v-4.202H79.672V58.151h-4.737v13.612H62.418v4.202h12.517v13.444z" fill="#fff"/><path d="M61.065 12.105V9.248h-8.458V.005h-3.045v9.243h-8.457v2.857h8.457v9.243h3.045v-9.243h8.458zM8.458 60.337h3.044v-9.243h8.458v-2.857h-8.458v-9.075H8.458v9.075H0v3.025l8.458-.168v9.243z" fill="#fff"/></svg>
